lib/logo_tmp/nrk-logo-nrk-tv-title-below-on-dark.svg

<svg width="40" height="35" viewBox="0 0 40 35" fill="none" xmlns="http://www.w3.org/2000/svg">
<path d="M0 14.3335V0.334727H4.59339V14.3335H0ZM10.8428 2.5627L13.4844 14.3335H8.45737L5.30307 0.334727H8.12254C8.76907 0.326336 9.39641 0.554246 9.88691 0.975577C10.3782 1.37923 10.7158 1.9396 10.8428 2.5627ZM14.1744 14.3335V0.334727H18.7678V14.3335H14.1744ZM22.2372 5.65824C21.7422 5.66306 21.2552 5.53356 20.828 5.28358C20.4064 5.03993 20.0563 4.68974 19.8127 4.26815C19.5624 3.84084 19.4329 3.35368 19.4378 2.85849C19.4321 2.36633 19.5618 1.88206 19.8127 1.45862C20.0589 1.04161 20.4086 0.695231 20.828 0.453061C21.2553 0.203375 21.7423 0.0738891 22.2372 0.0784033C22.7292 0.0731044 23.2133 0.202706 23.6369 0.453061C24.0521 0.697354 24.3981 1.04344 24.6424 1.45862C24.893 1.88218 25.0226 2.36636 25.0172 2.85849C25.0218 3.35364 24.8923 3.84072 24.6424 4.26815C24.4007 4.68789 24.0542 5.03778 23.6369 5.28358C23.2133 5.53443 22.7289 5.66406 22.2366 5.65824H22.2372ZM25.7269 14.3335V0.334727H30.3207V14.3335H25.7269ZM36.136 7.98473C36.1489 7.99831 36.2475 8.15932 36.4317 8.46777C36.6159 8.77623 36.8558 9.17059 37.1513 9.65079C37.447 10.1308 37.759 10.6401 38.0874 11.1788C38.4157 11.7175 38.7247 12.2269 39.0143 12.7069C39.3028 13.1868 39.6313 13.729 40 14.3335H34.9531C34.6375 13.8208 34.3515 13.3575 34.0952 12.9434C33.8389 12.5294 33.5665 12.0825 33.2778 11.6027C32.9884 11.1234 32.7024 10.6567 32.4196 10.2028C32.1368 9.74891 31.8938 9.35134 31.6905 9.01002C31.4863 8.66849 31.3449 8.43843 31.2663 8.31991C31.0713 8.02581 30.9559 7.68613 30.9315 7.33409C30.951 6.99621 31.0597 6.66959 31.2466 6.38742C31.3254 6.25597 31.47 6.02262 31.6803 5.68744C31.8906 5.35226 32.137 4.95468 32.4196 4.49463C32.7021 4.03458 32.9882 3.56466 33.2778 3.08489C33.5674 2.60512 33.8398 2.1549 34.0952 1.73428C34.3519 1.3141 34.6379 0.847473 34.9531 0.334406H40L36.0962 6.70287C35.9754 6.89195 35.9073 7.10986 35.8991 7.33409C35.9121 7.5695 35.9942 7.79583 36.1353 7.98473H36.136Z" fill="white"/>
<path d="M0 22.089H4.54558V34.3119H6.6298V22.089H11.1555V20.3597H0V22.089Z" fill="#8BB5EB"/>
<path d="M22.1126 20.3597L19.155 29.0454C19.0087 29.4909 18.8598 29.9625 18.708 30.4603C18.5563 30.9581 18.4108 31.456 18.2716 31.9538C18.1995 32.2108 18.1304 32.4588 18.0642 32.6979C17.9947 32.4454 17.9216 32.1853 17.8449 31.9145C17.6987 31.4036 17.5497 30.8959 17.3979 30.3915C17.2462 29.8872 17.0907 29.4123 16.9315 28.9668L14.0334 20.3597H11.8102L16.6933 34.3119H19.2737L24.1766 20.3597H22.1126Z" fill="#8BB5EB"/>
</svg>

<svg xmlns="http://www.w3.org/2000/svg" viewBox="0 0 40 35"><path fill="#fff" d="M0 14.334v-14h4.593v14H0ZM10.843 2.563l2.641 11.77H8.457L5.303.336h2.82a2.655 2.655 0 0 1 1.764.64c.491.404.829.965.956 1.588Zm3.331 11.77V.336h4.594v13.998h-4.594Zm8.063-8.675a2.737 2.737 0 0 1-1.409-.374 2.778 2.778 0 0 1-1.015-1.016 2.735 2.735 0 0 1-.375-1.41 2.685 2.685 0 0 1 .375-1.4A2.812 2.812 0 0 1 23.637.454c.415.244.761.59 1.005 1.006.251.423.38.907.375 1.4.005.495-.125.982-.375 1.41a2.8 2.8 0 0 1-1.005 1.015c-.424.25-.908.38-1.4.374Zm3.49 8.675V.336h4.594v13.998h-4.594Zm10.409-6.348c.013.013.111.174.296.483.184.308.424.703.72 1.183a385.327 385.327 0 0 1 1.862 3.056c.289.48.617 1.022.986 1.627h-5.047l-.858-1.39c-.256-.415-.529-.862-.817-1.341-.29-.48-.576-.946-.858-1.4a71.033 71.033 0 0 1-.73-1.193 21.112 21.112 0 0 0-.424-.69 2.04 2.04 0 0 1-.334-.986c.019-.338.128-.664.315-.947.078-.131.223-.364.433-.7a216.7 216.7 0 0 0 1.598-2.603l.817-1.35.858-1.4H40l-3.904 6.369c-.12.189-.189.407-.197.631.013.236.095.462.236.65h.001Z"/><path fill="#8BB5EB" d="M0 22.089h4.546v12.223H6.63V22.089h4.526v-1.73H0v1.73ZM22.113 20.36l-2.958 8.685a69.78 69.78 0 0 0-.883 2.909l-.208.744a116.574 116.574 0 0 0-.666-2.306 29.45 29.45 0 0 0-.466-1.425l-2.899-8.607H11.81l4.883 13.952h2.58l4.904-13.952h-2.064Z"/></svg>
